Untapped.gg/logos/untappedgg-mini-white.svg

<svg width="35" height="37" viewBox="0 0 35 37" fill="none" xmlns="http://www.w3.org/2000/svg">
<path d="M14.5326 10.0669L24.7663 0L35 10.0669H28.851V27.9902C28.851 31.1436 28.1183 33.4411 26.6528 34.8827C25.2179 36.2942 22.8976 37 19.6919 37H9.15905C5.95338 37 3.61782 36.2942 2.15237 34.8827C0.717463 33.4411 0 31.1436 0 27.9902V5.01533H8.24314V27.9902C8.24314 29.7922 9.15905 30.6932 10.9908 30.6932H17.8601C19.6919 30.6932 20.6079 29.7922 20.6079 27.9902V10.0669H14.5326Z" fill="white"/>
</svg>

<svg width="35" height="37" fill="none" xmlns="http://www.w3.org/2000/svg"><path d="M14.533 10.067L24.766 0 35 10.067h-6.149V27.99c0 3.154-.733 5.451-2.198 6.893C25.218 36.294 22.898 37 19.692 37H9.159c-3.206 0-5.541-.706-7.007-2.117C.717 33.44 0 31.143 0 27.99V5.015h8.243V27.99c0 1.802.916 2.703 2.748 2.703h6.87c1.83 0 2.747-.9 2.747-2.703V10.067h-6.075z" fill="#fff"/></svg>
